X:1
T:Douglas, CMD
T:Douglas, CMD
T:Ira David Sankey, 1886
T:Public Domain Courtesy of the Cyber Hymnal™
C:Ira David Sankey, 1886
Z:Public Domain
Z:Courtesy of the Cyber Hymnal™
%%score ( 1 2 ) ( 3 4 )
L:1/8
Q:1/4=112
M:4/4
K:C
V:1 treble 
V:2 treble 
V:3 bass 
V:4 bass 
V:1
 [EG]2 | [EG]3 [DF] [CE]2 [Ec]2 | [Fc]3 [FB] [FA]2 [FA]2 | [EG]3 [FA] [EG]2 [CE]2 | [B,D]6 [FG]2 | %5
 [EG]3 [DF] [CE]2 [Gc]2 | [Ac]3 [GB] [FA]2 [FA]2 | [EG]3 [EG] [FA]2 [FB]2 | [Ec]6 G2 | %9
 [Fd]3 [FB] [FG]2 G2 | [Ge]3 [Ec] [EG]2 G2 | [Ff]2 [Ge]2 [Ad]2 [Ac]2 | (c4 B2) G2 | %13
 [FA]3 [FB] [Ec]2 [Ec]2 | [Fd]2 [Af]2 [Ae]2 [Ad]2 | [Gc]3 [Ec] [Fd]3 [Ec] | [Ec]6 |] %17
V:2
 x2 | x8 | x8 | x8 | x8 | x8 | x8 | x8 | x6 G2 | x6 G2 | x6 G2 | x8 | G6 G2 | x8 | x8 | x8 | x6 |] %17
V:3
 [C,C]2 | [C,C]3 [C,G,] [C,G,]2 [C,G,]2 | [F,A,]3 [F,B,] [F,C]2 [F,C]2 | %3
 [C,C]3 [C,C] [C,C]2 [C,G,]2 | [G,,G,]6 [G,,B,]2 | [C,C]3 [C,G,] [C,G,]2 [E,C]2 | %6
 [F,C]3 [F,C] [F,C]2 [F,C]2 | [G,C]3 G, [G,,B,]2 [G,,G,]2 | [C,G,]6 G,2 | %9
 [G,B,]3 [G,D] [G,B,]2 G,2 | [C,C]3 [C,G,] [C,C]2 G,2 | [B,D]2 C2 [F,D]2 [^F,^D]2 | %12
 (E4 D2) [E,C]2 | [F,C]3 [D,G,] [C,G,]2 [C,C]2 | [F,A,]2 [D,D]2 [E,^C]2 [F,D]2 | %15
 [G,E]3 [G,C] [G,B,]3 [G,C] | [C,C]6 |] %17
V:4
 x2 | x8 | x8 | x8 | x8 | x8 | x8 | x3 G, x4 | x6 G,2 | x6 G,2 | x6 G,2 | x2 C2 x4 | G,6 x2 | x8 | %14
 x8 | x8 | x6 |] %17

